resources/lib/oojs-ui/themes/mediawiki/images/icons/map-rtl.svg

<?xml version="1.0" encoding="utf-8"?>
<svg xmlns="http://www.w3.org/2000/svg" width="24" height="24" viewBox="0 0 24 24">
    <path d="M9 6l6-2 6 2v15l-6-2-6 2-6-2v-15l6 2zm6.3 12.1l4.7 1.5v-12.9l-5-1.7v12.9l.3.2zm-11.3.2l5 1.7v-12.9l-.3-.1-4.7-1.6v12.9z" id="path424"/>
</svg>

<?xml version="1.0" encoding="utf-8"?>
<svg xmlns="http://www.w3.org/2000/svg" width="24" height="24" viewBox="0 0 24 24">
    <path d="M9 6l6-2 6 2v15l-6-2-6 2-6-2V4l6 2zm6.3 12.1l4.7 1.5V6.7L15 5v12.9l.3.2zM4 18.3L9 20V7.1L8.7 7 4 5.4v12.9z" id="path424"/>
</svg>
